X: 1
T: Frog Rock
M: 6/8
L: 1/8
R: jig
K: Dmaj
|:DE|FEA FDB,|A,B,D EFA|BAd BAF|AdB ADE|
~F3 EDB,|A,B,D EFA|Bde edB|AFE E:|
FA|d2f edB|dfe dBA|BAd BAF|AdB AFA|
d2f edB|dfe dBA|Bde faf|edB AFA|
Bee efe|Bdd dBA|Bee ~f3|dBA FEF|
Bee efe|dfa afa|bfb aea|fdB A||
